rospo-newyear-dark/symbolic/status/rotation-locked-symbolic.svg

<svg height="16" width="16" xmlns="http://www.w3.org/2000/svg"><path d="m13 9c-1.11 0-2 .91-2 2.03v.97h-1v4h6v-4h-1v-.97c0-1.12-.89-2.03-2-2.03zm0 1c .55 0 1 .44 1 1v1h-2v-1c0-.56.45-1 1-1z" fill="#d3dae3"/><path d="m8 2c-3.3137 0-6 2.6863-6 6h-2l3 4 3-4h-2c0-2.2091 1.7909-4 4-4 2.209 0 4 1.7909 4 4h2c0-3.3137-2.686-6-6-6zm1 9.857c-.3214.084-.6526.143-1 .143a1 1 0 0 0 -1 1 1 1 0 0 0 1 1 1 1 0 0 0  .0957-.004c.3085-.005.6087-.04.9043-.09z" fill="#d3dae3" opacity=".3"/></svg>

<svg xmlns="http://www.w3.org/2000/svg" width="16" height="16" version="1.1">
 <path style="fill:#d3dae3" d="M 13,9 C 11.89,9 11,9.91 11,11.03 V 12 H 10 V 16 H 16 V 12 H 15 V 11.03 C 15,9.91 14.11,9 13,9 Z M 13,10 C 13.55,10 14,10.44 14,11 V 12 H 12 V 11 C 12,10.44 12.45,10 13,10 Z"/>
 <path style="fill:#d3dae3;opacity:0.3" d="M 8 2 C 4.6863 2 2 4.6863 2 8 L 0 8 L 3 12 L 6 8 L 4 8 C 4 5.7909 5.7909 4 8 4 C 10.209 4 12 5.7909 12 8 L 14 8 C 14 4.6863 11.314 2 8 2 z M 9 11.857 C 8.6786 11.941 8.3474 12 8 12 A 1 1 0 0 0 7 13 A 1 1 0 0 0 8 14 A 1 1 0 0 0 8.0957 13.996 C 8.4042 13.991 8.7044 13.956 9 13.906 L 9 11.857 z"/>
</svg>
